X:1
T:Harmony Grove, LM
T:Harmony Grove, LM
T:Henry Kemble Oliver, 1839
T:Public Domain Courtesy of the Cyber Hymnal™
C:Henry Kemble Oliver, 1839
Z:Public Domain
Z:Courtesy of the Cyber Hymnal™
%%score 1 2 3 4
L:1/8
M:3/2
K:A
V:1 treble 
V:2 treble 
V:3 treble-8 
V:4 bass 
V:1
 A2 A2 A2 | A4 c4 e2 G2 | A6 G2 G2 G2 | A2 c2 f4 f4 | !fermata!e4 z2 c2 c2 B2 | A4 c4 B2 A2 | %6
 G6 G2 A2 A2 | A2 A2 A4 G4 | A8 |] %9
V:2
 E2 E2 E2 | E4 E4 E2 E2 | E6 ^E2 E2 E2 | F2 A2 A4 A4 | !fermata!G4 z2 E2 E2 E2 | E4 E4 E2 E2 | %6
 E6 E2 E2 E2 | F2 F2 E6 D2 | C8 |] %9
V:3
 c2 c2 c2 | c4 e4 A2 B2 | c6 c2 c2 c2 | c2 c2 ^d4 d4 | !fermata!e4 z2 e2 e2 d2 | c4 e4 d2 c2 | %6
 B6 B2 c2 e2 | A2 d2 c4 B4 | A8 |] %9
V:4
 A,2 A,2 A,2 | A,4 A,4 C,2 E,2 | A,6 C,2 C,2 C,2 | F,2 F,2 B,,4 B,,4 | %4
 !fermata!E,4 z2 E,2 E,2 E,2 | E,4 E,4 G,2 A,2 | E,6 E,2 A,2 C,2 | F,2 D,2 E,4 E,4 | A,,8 |] %9

